!!!COM:	Japart, Jean
!!!CDT:	~1450//-~1507//
!!!OTL:	Trois filles estoient
!!!AGN:	Song; Chanson
!!!SCT:	Jap3021
!!!SCA:	Jap3021
!!!voices:	3
**kern	**kern	**kern
*staff3	*staff2	*staff1
*Ivox	*Ivox	*Ivox
*I"Contra	*I"Tenor	*I"Superius
*I'C	*I'T	*I'S
*clefGv2	*clefGv2	*clefGv2
*k[]	*k[]	*k[]
*M2/1	*M2/1	*M2/1
*met(C|)	*met(C|)	*met(C|)
=1-	=1-	=1-
1d	0r	0r
1d	.	.
=2	=2	=2
1c	0r	0r
1c	.	.
=3	=3	=3
1d	0r	0r
1d	.	.
=4	=4	=4
1f	0r	1d
1f	.	1d
=5	=5	=5
1e	0r	1c
1e	.	1c
=6	=6	=6
1.d	0r	1d
.	.	1d
2c	.	.
=7	=7	=7
1B-	1d	1f
1d	1d	1f
=8	=8	=8
0A	1c	1e
.	1c	1e
=9	=9	=9
1r	1d	1.d
[1D	1d	.
.	.	4c
.	.	4B
=10	=10	=10
2D]	1f	0A
2E	.	.
2F	1f	.
2G	.	.
=11	=11	=11
2A	1e	0r
2B	.	.
2c	1e	.
4B	.	.
4c	.	.
=12	=12	=12
4d	1.d	0r
4c	.	.
4B	.	.
4A	.	.
1G	.	.
.	4c	.
.	4B	.
=13	=13	=13
1A	0A	1c
1c	.	1c
=14	=14	=14
1c	1c	1A
1A	1c	1A
=15	=15	=15
1A	1A	1F
1F	1A	1F
=16	=16	=16
1F	1F	1c
1D	1F	2d
.	.	[2f
=17	=17	=17
0C	0G	2f]
.	.	4e
.	.	4d
.	.	1e
=18	=18	=18
1.c	0F	1f
.	.	1c
2A	.	.
=19	=19	=19
2F	0r	1.d
1B-i	.	.
4A	.	4c
4G	.	4B
=20	=20	=20
1F	0c	0A
1e	.	.
=21	=21	=21
1.f	1.d	0r
4e	4c	.
4d	4B	.
=22	=22	=22
1c	0A	2F
.	.	2F
[1f	.	2F
.	.	2F
=23	=23	=23
2f]	0r	1G
4e	.	.
4d	.	.
4e	.	1G
4d	.	.
4c	.	.
4B	.	.
=24	=24	=24
2A	0r	2F
1d	.	2F
.	.	2E
2c#i	.	2E
=25	=25	=25
1d	2F	2D
.	2F	2.A
1A	2F	.
.	.	4B
.	2F	4c
.	.	4d
=26	=26	=26
1r	1G	2e
.	.	1f
1B-i	1G	.
.	.	2e
=27	=27	=27
1A	2F	2f
.	2F	4e
.	.	4d
1G	2E	2.c#i
.	2E	.
.	.	4B
=28	=28	=28
1B-i	0D	0d
1A	.	.
=29	=29	=29
*M3/1	*M3/1	*M3/1
*met(3)	*met(3)	*met(3)
0d	0.D	0.r
1d	.	.
=30	=30	=30
0c	0.E	0.r
1c	.	.
=31	=31	=31
0d	0.D	0.r
1d	.	.
=32	=32	=32
0f	0.D	0d
1f	.	1d
=33	=33	=33
0e	0.A	0c
1e	.	1c
=34	=34	=34
0d	0.D	0d
1d	.	1d
=35	=35	=35
1.B-i	0d	0f
2c	.	.
1d	1d	1f
=36	=36	=36
0A	0c	0e
1A	1c	1e
=37	=37	=37
0D	0d	1.d
.	.	2c
[1D	1d	1B
=38	=38	=38
1D]	0f	0A
0D	.	.
.	1f	1r
=39	=39	=39
1.A	0e	0.r
2G	.	.
1A	1e	.
=40	=40	=40
1.B-i	1.d	0.r
2A	2c	.
1G	1B	.
=41	=41	=41
[0.F	0.A	0c
.	.	1c
=42	=42	=42
0.F]	0c	0A
.	1c	1A
=43	=43	=43
1r	0A	0F
1r	.	.
1F	1A	1c
=44	=44	=44
1F	0F	1d
0D	.	0f
.	1F	.
=45	=45	=45
0.C	0G	1e
.	.	1.g
.	1G	.
.	.	2f
=46	=46	=46
0.C	1G	2e
.	.	2d
.	0G	1.e
.	.	2d
=47	=47	=47
0c	0.F	0f
1A	.	1c
=48	=48	=48
1B-i	0.r	1.d
0G	.	.
.	.	2c
.	.	1B
=49	=49	=49
1.F	0c	0A
2G	.	.
1A	1c	1e
=50	=50	=50
0.D	1.d	1.f
.	2c	2e
.	1B	1d
=51	=51	=51
0.r	0.A	0.c#
=52	=52	=52
*M2/1	*M2/1	*M2/1
*met(C|)	*met(C|)	*met(C|)
1A	1F	1d
1A	1F	1d
=53	=53	=53
1A	1F	1d
1A	1F	1d
=54	=54	=54
0B	0G	0e
=55	=55	=55
0B	0G	0e
=56	=56	=56
1A	1F	1d
1A	1F	1d
=57	=57	=57
1G	1E	1c#i
1G	1E	1c#i
=58	=58	=58
0Al	0Dl	0dl
==	==	==
*-	*-	*-
!!!RDF**kern: l=long note in original notation
!!!RDF**kern: i=editorial accidental
!!!ENC:	Chris Gage 10-03-2013
!!!END:	2013/10/24/
!!!EED:	Jesse Rodin
!!!EEV:	2013/12/19/
!!!ONB:	Translated from MusicXML and edited on 2013/12/19/ by Craig Sapp
!!muse2ps: C^@{COM}^i2I150v95,95,130Q8c180
